X: 24320
T: Lough Key
R: hornpipe
M: 4/4
K: Gmajor
|:(3DEF|GFGA BGBd|gfga bgdB|c3 d edcB|Aa^ga fdcA|
G3 A BGBd|gfga bgdB|c3 d egfg|ecAF G2:|
|:Bd|g3 a bgaf|gbaf gdBd|c3 d edcB|Aa^ga fdef|
g2 ga bgaf|gbaf gdBd|c3 d egfg|ecAF G2:|

